packages/astro-components-stencil/src/icons/settings-power.svg

<svg width="24" height="24" viewBox="0 0 24 24" fill="none" xmlns="http://www.w3.org/2000/svg">
<path fill-rule="evenodd" clip-rule="evenodd" d="M11.0001 3C11.0001 2.45 11.4501 2 12.0001 2C12.5501 2 13.0001 2.45 13.0001 3V11C13.0001 11.55 12.5501 12 12.0001 12C11.4501 12 11.0001 11.55 11.0001 11V3ZM7.00006 24H9.00006V22H7.00006V24ZM11.0001 22V24H13.0001V22H11.0001ZM15.9401 5.06L15.9201 5.08C15.5101 5.49 15.5601 6.16 16.0001 6.54C17.5101 7.88 18.3301 9.97 17.8801 12.24C17.4201 14.52 15.5901 16.38 13.3201 16.86C9.43006 17.69 6.00006 14.74 6.00006 11C6.00006 9.22 6.78006 7.63 8.01006 6.53C8.44006 6.14 8.48006 5.49 8.08006 5.08L8.06006 5.06C7.69006 4.69 7.10006 4.67 6.70006 5.02C4.69006 6.79 3.58006 9.55 4.14006 12.54C4.73006 15.69 7.25006 18.24 10.4001 18.85C15.5201 19.84 20.0001 15.95 20.0001 11C20.0001 8.62 18.9501 6.48 17.2901 5.01C16.9001 4.67 16.3101 4.69 15.9401 5.06ZM17.0001 22V24H15.0001V22H17.0001Z" fill="black"/>
</svg>

<svg xmlns="http://www.w3.org/2000/svg" viewBox="0 0 24 24"><g xmlns="http://www.w3.org/2000/svg" id="settings-power" fill-rule="nonzero">
            <path d="M7 24h2v-2H7v2zm4 0h2v-2h-2v2zm1-22c-.55 0-1 .45-1 1v8c0 .55.45 1 1 1s1-.45 1-1V3c0-.55-.45-1-1-1zm3.94 3.06l-.02.02c-.41.41-.36 1.08.08 1.46 1.51 1.34 2.33 3.43 1.88 5.7-.46 2.28-2.29 4.14-4.56 4.62A6.01 6.01 0 016 11c0-1.78.78-3.37 2.01-4.47.43-.39.47-1.04.07-1.45l-.02-.02a.991.991 0 00-1.36-.04c-2.01 1.77-3.12 4.53-2.56 7.52.59 3.15 3.11 5.7 6.26 6.31 5.12.99 9.6-2.9 9.6-7.85 0-2.38-1.05-4.52-2.71-5.99a.99.99 0 00-1.35.05zM15 24h2v-2h-2v2z"/>
        </g></svg>
